Adwaita++/actions/22/calendar-go-today.svg

<svg height="22" viewBox="0 0 22 22" width="22" xmlns="http://www.w3.org/2000/svg">
  <path d="m2 1s-1 0-1 1v4.9941406l2 .0058594v-1h.7988281l1.7050781-1.7070312.7070313-.7070313 2.4140625 2.4140625h4.375v7h-5.3398438l-1.4453124 1.458984-1.4492188-1.458984h-1.7558594v-1.990234l-2-.00586v2.996094s0 1 1 1h12.0000004c1 0 1-1 1-1v-12s0-1-1-1zm4.2109375 4-1.3867187 1.3867188 1.6347656 1.6347656-6.44921877-.0214844v2l6.46093747.021484-1.6347656 1.632813 1.3847656 1.386719 4.0019529-4.041016z" fill="#444" transform="translate(3 3)"/>
</svg>

<svg xmlns="http://www.w3.org/2000/svg" width="22" height="22" viewBox="0 0 22 22">
 <defs>
  <style id="current-color-scheme" type="text/css">
   .ColorScheme-Text { color:#444444; } .ColorScheme-Highlight { color:#4285f4; }
  </style>
 </defs>
 <path style="fill:currentColor" class="ColorScheme-Text" d="M 2 1 C 2 1 1 1 1 2 L 1 6.9941406 L 3 7 L 3 6 L 3.7988281 6 L 5.5039062 4.2929688 L 6.2109375 3.5859375 L 8.625 6 L 13 6 L 13 13 L 7.6601562 13 L 6.2148438 14.458984 L 4.765625 13 L 3.0097656 13 L 3.0097656 11.009766 L 1.0097656 11.003906 L 1.0097656 14 C 1.0097656 14 1.0097656 15 2.0097656 15 L 14.009766 15 C 15.009766 15 15.009766 14 15.009766 14 L 15.009766 2 C 15.009766 2 15.009766 1 14.009766 1 L 2 1 z M 6.2109375 5 L 4.8242188 6.3867188 L 6.4589844 8.0214844 L 0.009765625 8 L 0.009765625 10 L 6.4707031 10.021484 L 4.8359375 11.654297 L 6.2207031 13.041016 L 10.222656 9 L 6.2109375 5 z" transform="translate(3 3)"/>
</svg>
